packages/foundations/assets/icons/functional/images/maps/navigation_to_left_24.svg

<svg width="24" height="24" viewBox="0 0 24 24" fill="none" xmlns="http://www.w3.org/2000/svg">
<g clip-path="url(#clip0_2213_5386)">
<path fill-rule="evenodd" clip-rule="evenodd" d="M10.8047 3.09998C10.5393 3.09998 10.2739 3.1994 10.1081 3.39824L6.2986 7.20382C6.0995 7.36959 6 7.63478 6 7.89998C6 8.13199 6.0995 8.39719 6.2986 8.59613L10.3081 12.6017C10.4739 12.7674 10.7393 12.9 11.0047 12.9C11.5687 12.9 12 12.4359 12 11.9056C12 11.6404 11.9005 11.3752 11.7014 11.1762L9.423 8.89998H13C14.6569 8.89998 16 10.2431 16 11.9V19.9C16 20.4523 16.4477 20.9 17 20.9C17.5523 20.9 18 20.4523 18 19.9V11.9C18 9.13855 15.7614 6.89998 13 6.89998H9.423L11.5014 4.82373C11.7005 4.61139 11.8 4.36828 11.8 4.0944C11.8 3.56401 11.3687 3.09998 10.8047 3.09998Z" fill="#1A1C1F"/>
</g>
<defs>
<clipPath id="clip0_2213_5386">
<rect width="24" height="24" fill="white"/>
</clipPath>
</defs>
</svg>

<svg xmlns="http://www.w3.org/2000/svg" width="24" height="24" fill="none"><g clip-path="url(#a)"><path fill="#1A1C1F" fill-rule="evenodd" d="M10.805 3.1c-.266 0-.531.1-.697.298l-3.81 3.806C6.1 7.37 6 7.634 6 7.9c0 .232.1.497.299.696l4.01 4.006c.165.165.43.298.696.298a1 1 0 0 0 .995-.994c0-.266-.1-.53-.299-.73L9.423 8.9H13a3 3 0 0 1 3 3v8a1 1 0 1 0 2 0v-8a5 5 0 0 0-5-5H9.423l2.078-2.076q.3-.32.299-.73a1 1 0 0 0-.995-.994" clip-rule="evenodd"/></g><defs><clipPath id="a"><path fill="#fff" d="M0 0h24v24H0z"/></clipPath></defs></svg>
